X:1
T:Mori quas'il mio core
T:Giovanni Pierluigi da Palestrina
T:Source : Melodia Olympica---Anversa---P.Phalesio & G.Bellero---1591. Editor: André Vierendeels (09/01/14). 
T:Mori quas'il mio core
C:Pierluigi da Palestrina
%%score [ 1 2 3 4 ]
L:1/8
Q:1/4=96
M:4/4
K:F
V:1 treble nm="Canto" snm="C"
V:2 treble nm="Alto" snm="A"
V:3 treble-8 nm="Tenor" snm="T"
V:4 bass nm="Basso" snm="B"
V:1
 F4 c4- | c2 c2 d2 e2 | f8 | e4 A2 c2- | c2 B2 A2 F2 | A4 G2 c2 | d2 c2 d2 f2- | f2 e2 f4 | z8 | %9
w: Mo- ri|_ qua- s'il mio|co-|re, mo- ri|_ qua- s'il mio|co- re, quan-|do la bian- ca|_ ma- no,||
 z4 z2 c2 | c6 B2 | B2 A2 A4 | G4 z4 | z8 | z8 | e4 z2 e2 | f4 e2 d2 | c2 c4 c2 | d4 c2 B2 | %19
w: mi|die- d'hai|me pian pia-|no,|||fior ch'in|ve- ce d'o-|dor, fior ch'in|ve- ce d'o-|
 A2 F2 FG AB | cB cd e2 f2- | f2 e2 f4 | z2 c4 d2 | B4 B2 A2 | B4 z2 B2 | Bc de f4 | d4 c3 B | %27
w: dor spi- ra- * * *|* * * * * v'ar-|* do- re,|fior ch'in|ve- ce d'o-|dor spi-|ra- * * * *|v'ar- do- *|
"^-natural" AG c4 B2 | c6 c2 | d4 =B4 | c2 e2 f4 | d2 e4 c2 | d6 c2 | B2 A2 B4 | A2 c2 d4 | %35
w: |re, hor|s'un bel|fior, hor s'un|bel fior m'ha|qua- s'il|cor dis- trut-|to, hor s'un|
 B2 c4 A2 | B6 A2 | G2 F2 G4 | F2 d4 e2 | f4 e2 c2 | de f4 e2 | fe dc d2 A2- | A2 B2 c4 | %43
w: bel fior m'ha|qua- s'il|cor dis- trut-|to, che far-|ria'l dol- ce|frut- * * *|to, _ _ _ _ che|_ far- ria'l|
 B2 G2 A4- | A4 G4- | G4 z4 | z4 z2 c2- | c2 d4 =B2 | c2 A2 B4- | B2 A2 G2 F2 | G8 | F8 | %52
w: dol- ce frut-|* to,|_|hor|_ s'un bel|fior m'ha qua-|* s'il cor dis-|trut-|to,|
 F4 G2 A2- | A2 d4 e2 | f4 e2 c2 | d4 c3 B | A8 |] %57
w: che far- ria,|_ che far-|ria'l dol- ce|frut- * *|to.|
V:2
 z4 C4 | F6 G2 | A2 B2 A3 G/F/ | G4 F4 | z8 | z4 c4 | B2 A2 G2 F2 | G2 G2 z2 F2 | G2 A2 B4 | %9
w: Mo-|ri qua-|s'il mio co- * *|* re,||quan-|do la bian- ca|ma- no, la|bian- ca ma-|
 A2 A2 A4- | A2 G2 G2 F2 | F4 E4 | z2 G2 G4- | G2 F2 F2 E2 | E4 D4 | G8 | z2 F2 G4 | A4 F2 E2 | %18
w: no, mi die-|* d'hai- me pian|pia- no,|mi die|_ d'hai- me pian|pia- no,|fior,|fior ch'in|ve- ce d'o-|
 D4 E4 | FG AB c4 | A2 A4 GF | G4 A4 | A6 F2 | G4 F2 E2 | F2 F2 B,C DE | F4 D2 D2 | DE FG AB c2- | %27
w: dor spi-|ra- * * * *|v'ar- do- * *|* re,|fior ch'in|ve- ce d'o-|dor spi- ra- * * *|* va, spi-|ra- * * * * * *|
 c2 A2 G4 | E2 G2 A4 | ^F4 G4 | E4 z4 | z8 | z8 | z4 G4 | A4 F2 G2- | G2 E2 F4- | F2 E2 D2 CD | %37
w: * v'ar- do-|re, hor s'un|bel fio-|re,|||hor|s'un bel fior|_ m'ha qua-|* s'il cor dis- *|
 EC F4 E2 | F4 z2 A2- | A2 B2 c4 | B2 A2 G4 | F8 | z4 E2 F2 | G4 F3 E |"^-natural" D2 C4 B,2 | %45
w: * * trut- *|to, che|_ far- ria'l|dol- ce frut-|to,|che far-|ria'l dol- ce|frut- * *|
 C4 z4 | z4 G4 | A2 F2 G4 | E2 F4 E2 | D2 C2 D4 |"^b" B,2 B,2 E2 D2 | C2 B,2 C4 | D2 D4 E2 | %53
w: to,|hor|s'un bel fior|m'ha qua- s'il|cor dis- trut-|to, m'ha qua- s'il|cor dis- trut-|to, che far-|
 F4 F2 E2 | D4 G2 A2 | G2 F4 E2 | F8 |] %57
w: ria'l dol- ce|frut- to, il|dol- ce frut-|to.|
V:3
 z8 | z8 | z4 F4 | c6 c2 | d2 e2 f4- | f4 e4 | z8 | z2 c2 d2 c2 | d2 f4 e2 | f2 f2 f4- | %10
w: ||Mo-|ri qua-|s'il mio co-|* re,||quan- do la|bian- ca ma-|no, mi die-|
 f2 _e2 e2 d2 | d4 c4 | z2 e2 e2 d2 | d2 c2 c4- | c4 =B4 | c4 z2 c2 | d4 c2 B2 | A8 | z8 | %19
w: * d'hai- me pian|pia- no,|mi die d'hai-|me pian pia-|* no,|fior ch'e|ve- ce d'o-|dor||
 z4 z2 F2 | FG AB c2 d2 | c4 F4 | c4 A2 B2 | G3 A B2 c2 | d8 | z2 B2 Bc de | f6 ed | e2 f2 d4 | %28
w: spi-|ra- * * * * v'ar-|do- re,|fior ch'in ve-|ce _ _ d'o-|dor,|spi- ra- * * *||* v'ar- do-|
 c2 e2 f4 | d4 G2 g2- | g2 a4 f2 | g4 e2 f2- | f2 d2 B2 c2 | de f4 e2 | f2 F2 B4 | G2 A4 F2 | %36
w: re, hor s'un|bel fior, hor|_ s'un bel|fior m'ha qua-|* s'il cor dis-|trut- * * *|to, hor s'un|bel fior m'ha|
 G4 F4 | c2 d2 c4 | d4 z4 | z8 | z8 | z2 B4 c2 | d4 z2 c2 | d2 e2 d2 c2 | f3 e d4 | e2 g4 a2 | %46
w: qua- s'l|cor dis- trut-|to,|||che far-|ria, che|far- ria'l dol- ce|frut- * *|to, hor s'un|
 f2 g4 e2 | f3 e d4 | c2 d4 e2 | f2 f2 z2 d2 | _e2 d2 c2 B2 | A2 B4 A2 | B2 B4 c2 | d4 z2 A2- | %54
w: bel fior m'ha|qua- * *|s'il cor dis-|trut- to, m'ha|qua- s'il cor dis-|trut- * *|to, che far-|ria, che-|
 A2 B2 c4 | B2 A2 G4 | F8 |] %57
w: _ far- ria'l|dol- ce frut-|to.|
V:4
 z8 | z8 | z8 | C,4 F,4- | F,2 G,2 A,2 B,2 | C4 C4 | z8 | C4 B,2 A,2 | G,2 F,2 G,4 | F,2 D,2 F,4 | %10
w: |||Mo- ri|_ qua- s'il mio|co- re,||quan- do la|bian- ca ma-|no, mi die-|
 C,4 z4 | z4 z2 C2 | C6 B,2 | B,2 A,2 A,4 | G,8 | z4 C4 | z8 | F,4 z2 A,2 | B,4 A,2 G,2 | F,8 | %20
w: de,|mi|die- d'hai-|me pian pia-|no,|fior,||fior ch'in|ve- ce d'o-|dor|
 z8 | z8 | F,4 z2 D,2 | _E,4 D,2 C,2 | B,,8- | B,,4 z2 B,,2 | B,,C, D,E, F,G, A,B, | C2 F,2 G,4 | %28
w: ||fior, ch'in|ve- ce d'o-|dor,|_ spi-|ra- * * * * * * *|* v'ar- do-|
 C,4 z4 | z8 | C4 D4 | =B,2 C4 A,2 | B,6 A,2 | G,2 F,2 G,4 | F,4 z4 | z8 | z8 | z8 | z2 B,4 C2 | %39
w: re,||hor s'un|bel fior m'ha|qua- s'il|cor dis- trut-|to,||||che fer-|
 D4 C2 A,2 | B,4 C4 | z4 z2 F,2- | F,2 G,2 A,4 | G,2 E,2 F,4- | F,4 G,4 | z4 C4 | D2 B,2 C4 | %47
w: ria'l dol- ce|frut- to,|che|_ fer- ria'l|dol- ce frut-|* to,|hor|s'un bel fior|
 A,2 B,4 G,2 | A,2 F,2 G,4 | F,4 B,4 | G,4 _E,4 | F,8 | B,,4 z4 | z2 B,,4 C,2 | D,4 C,2 A,,2 | %55
w: m'ha qua- s'il|cor dis- trut-|to, il|cor dis-|trut-|to,|che far-|ria'l dol- ce|
 B,,4 C,4 | F,8 |] %57
w: frut- *|to.|

